web/themes/custom/uswds_wioa/images/svg/icon-check.svg

<?xml version="1.0" encoding="UTF-8"?>
<svg width="16px" height="16px" viewBox="0 0 16 16" version="1.1" xmlns="http://www.w3.org/2000/svg" xmlns:xlink="http://www.w3.org/1999/xlink">
    <!-- Generator: Sketch 52.3 (67297) - http://www.bohemiancoding.com/sketch -->
    <title>Combined Shape</title>
    <desc>Created with Sketch.</desc>
    <g id="Symbols" stroke="none" stroke-width="1" fill="none" fill-rule="evenodd">
        <g id="UI-element-/-Icons-/-Success---black" fill="#000000">
            <path d="M14.9272986,3.98433779 C15.6423902,5.20995349 16,6.5485928 16,8 C16,9.45127935 15.6423902,10.7899187 14.9271707,12.0156622 C14.2118234,13.2412779 13.2414058,14.2118234 12.0157901,14.9270429 C10.7901744,15.6423902 9.45153506,16 8.00012785,16 C6.54872065,16 5.2102092,15.6423902 3.98446565,14.9270429 C2.75872209,14.2116955 1.78830449,13.2411501 1.07295712,12.0156622 C0.35773761,10.7897908 0,9.4514072 0,8 C0,6.54872065 0.357609755,5.21008135 1.07308498,3.98433779 C1.78843234,2.75859424 2.75884995,1.78817663 3.9845935,1.07295712 C5.2102092,0.357609755 6.54884851,0 8.00025571,0 C9.45179077,0 10.7900465,0.357609755 12.0159179,1.07295712 C13.2415336,1.78830449 14.2119512,2.75872209 14.9272986,3.98433779 Z M7.505514,9.70184945 L5.05161966,7.64278761 C4.628545,7.28778582 3.9977894,7.34296978 3.64278761,7.76604444 C3.28778582,8.18911911 3.34296978,8.8198747 3.76604444,9.1748765 L6.83022222,11.7460269 C6.91681303,11.8186853 7.01210358,11.8741609 7.11194908,11.9128166 C7.53734508,12.2014516 8.1202318,12.1207676 8.44966049,11.7139571 L12.8549032,6.27393536 C13.2024673,5.84472949 13.1362835,5.21503306 12.7070777,4.867469 C12.2778718,4.51990495 11.6481754,4.58608871 11.3006113,5.01529457 L7.505514,9.70184945 Z" id="Combined-Shape"></path>
        </g>
    </g>
</svg>

<svg width="16" height="16" xmlns="http://www.w3.org/2000/svg"><path d="M14.927 3.984A7.827 7.827 0 0 1 16 8c0 1.451-.358 2.79-1.073 4.016a7.965 7.965 0 0 1-2.911 2.911A7.825 7.825 0 0 1 8 16a7.825 7.825 0 0 1-4.016-1.073 7.966 7.966 0 0 1-2.911-2.911A7.827 7.827 0 0 1 0 8c0-1.451.358-2.79 1.073-4.016a7.963 7.963 0 0 1 2.912-2.911A7.825 7.825 0 0 1 8 0a7.83 7.83 0 0 1 4.016 1.073 7.966 7.966 0 0 1 2.911 2.911zM7.506 9.702l-2.454-2.06a1 1 0 0 0-1.286 1.533l3.064 2.571a.999.999 0 0 0 .282.167 1 1 0 0 0 1.338-.199l4.405-5.44A1 1 0 1 0 11.3 5.015L7.506 9.702z" fill-rule="evenodd"/></svg>
